packages/IcoMoon/src/SubscriptIcon/index.svg

<svg version="1.1" xmlns="http://www.w3.org/2000/svg" width="16" height="16" viewBox="0 0 16 16">
<path d="M12 14.219v0.781h2v1h-3v-2.281l2-0.938v-0.781h-2v-1h3v2.281zM10.563 4h-2.125l-2.938 2.938-2.938-2.938h-2.125l4 4-4 4h2.125l2.938-2.938 2.938 2.938h2.125l-4-4z"></path>
</svg>

<svg xmlns="http://www.w3.org/2000/svg" viewBox="0 0 16 16">
  <path d="M12 14.219V15h2v1h-3v-2.281l2-.938V12h-2v-1h3v2.281zM10.563 4H8.438L5.5 6.938 2.562 4H.437l4 4-4 4h2.125L5.5 9.062 8.438 12h2.125l-4-4z"/>
</svg>
